src/images/3Pills_Title-01.svg

<svg width="257" height="184" viewBox="0 0 257 184" fill="none" xmlns="http://www.w3.org/2000/svg">
<g clip-path="url(#clip0)">
<path d="M63.5575 99.0625C75.7101 102.548 88.3797 95.5463 91.8558 83.4249C95.3319 71.3035 88.2981 58.652 76.1455 55.167C63.9928 51.6819 51.3232 58.6831 47.8471 70.8045C44.3711 82.9259 51.4048 95.5774 63.5575 99.0625Z" fill="#966891"/>
<g opacity="0.48">
<g style="mix-blend-mode:multiply" opacity="0.48">
<path d="M89.82 65.86C92.0001 71.2452 92.0442 77.2539 89.9432 82.6645C87.8423 88.0751 83.754 92.4814 78.5097 94.9877C73.2653 97.4939 67.2585 97.9119 61.7105 96.1566C56.1626 94.4013 51.4899 90.6046 48.6424 85.5383C49.8147 88.4338 51.569 91.0596 53.7971 93.2536C56.0251 95.4476 58.6797 97.1631 61.5968 98.2942C64.5139 99.4254 67.6316 99.9481 70.7574 99.8302C73.8832 99.7123 76.9507 98.9562 79.7705 97.6087C82.5903 96.2611 85.1025 94.3507 87.152 91.9954C89.2015 89.6401 90.7448 86.8899 91.6866 83.9146C92.6284 80.9394 92.9486 77.8022 92.6276 74.6969C92.3065 71.5916 91.351 68.584 89.82 65.86Z" fill="#966891"/>
</g>
</g>
<g style="mix-blend-mode:multiply">
<g style="mix-blend-mode:multiply" opacity="0.6">
<path d="M83.6632 59.1026L51.1801 90.3514C51.8575 91.3547 51.4925 91.1286 52.3274 92.0072C52.8069 92.4896 53.3522 92.902 53.9471 93.2321L86.4303 61.9834C85.7528 60.9801 86.1179 61.2061 85.2829 60.3276C84.448 59.449 84.6107 59.8435 83.6632 59.1026Z" fill="#966891"/>
</g>
</g>
<path d="M17.7438 44.4927C29.8879 47.1262 41.8621 39.4417 44.4888 27.3288C47.1155 15.2159 39.4002 3.26152 27.256 0.628007C15.1119 -2.0055 3.1377 5.67907 0.510965 17.792C-2.11577 29.9049 5.59961 41.8592 17.7438 44.4927Z" fill="#C0D5D0"/>
<g style="mix-blend-mode:multiply" opacity="0.44">
<g style="mix-blend-mode:multiply" opacity="0.44">
<path d="M41.3509 10.2275C43.8331 15.3656 44.2626 21.2517 42.552 26.6899C40.8415 32.1281 37.1192 36.7105 32.1415 39.506C27.1639 42.3016 21.3041 43.1006 15.7528 41.7407C10.2015 40.3809 5.37498 36.9642 2.25394 32.1848C3.58953 34.9495 5.47892 37.4122 7.80535 39.4206C10.1318 41.4291 12.8458 42.9407 15.7798 43.8621C18.7138 44.7835 21.8053 45.095 24.8634 44.7774C27.9215 44.4598 30.8811 43.5199 33.5595 42.0157C36.2378 40.5115 38.5779 38.475 40.4352 36.0321C42.2925 33.5891 43.6275 30.7916 44.3577 27.8124C45.0879 24.8332 45.1978 21.7356 44.6807 18.711C44.1635 15.6864 43.0302 12.7991 41.3509 10.2275Z" fill="#9FB7B2"/>
</g>
</g>
<g opacity="0.6">
<path opacity="0.6" d="M32.3352 2.02326L5.63067 37.3558C6.45055 38.2006 6.05312 38.0509 7.02426 38.7856C7.56403 39.1807 8.15771 39.4966 8.78717 39.7237L35.4841 4.38949C34.6718 3.54634 35.0616 3.6944 34.0905 2.95974C33.5526 2.56639 32.9616 2.25109 32.3352 2.02326Z" fill="#6A9A9B"/>
</g>
<path d="M212.135 177.436C229.266 180.998 246.034 170.033 249.586 152.945C253.139 135.858 242.131 119.118 224.999 115.557C207.867 111.995 191.1 122.96 187.547 140.048C183.995 157.135 195.003 173.875 212.135 177.436Z" fill="#F8EEC8"/>
<g opacity="0.33">
<path opacity="0.33" d="M244.971 128.909C248.519 136.116 249.186 144.396 246.839 152.07C244.492 159.744 239.305 166.236 232.332 170.23C225.358 174.224 217.12 175.42 209.289 173.575C201.458 171.731 194.621 166.984 190.164 160.298C192.076 164.181 194.765 167.632 198.065 170.437C201.366 173.243 205.208 175.344 209.353 176.61C213.499 177.876 217.86 178.28 222.166 177.797C226.473 177.314 230.633 175.955 234.39 173.803C238.147 171.652 241.421 168.753 244.009 165.287C246.597 161.821 248.444 157.862 249.436 153.654C250.428 149.446 250.543 145.078 249.775 140.822C249.007 136.566 247.372 132.511 244.971 128.909Z" fill="#F3C74A"/>
</g>
<g style="mix-blend-mode:multiply">
<g style="mix-blend-mode:multiply">
<path d="M197.146 123.605L235.627 172.793C237.072 171.993 236.736 172.477 238.08 171.428C239.425 170.379 238.878 170.592 240.026 169.389L201.545 120.2C200.1 121 200.436 120.516 199.092 121.565C197.747 122.614 198.272 122.397 197.146 123.605Z" fill="#F8EEC8"/>
</g>
</g>
</g>
<defs>
<clipPath id="clip0">
<rect width="257" height="184" fill="white"/>
</clipPath>
</defs>
</svg>

<svg width="257" height="184" viewBox="0 0 257 184" fill="none" xmlns="http://www.w3.org/2000/svg"><g clip-path="url(#clip0)"><path d="M63.557 99.063c12.153 3.485 24.823-3.517 28.299-15.638 3.476-12.121-3.558-24.773-15.71-28.258-12.153-3.485-24.823 3.516-28.299 15.638-3.476 12.12 3.558 24.772 15.71 28.257z" fill="#966891"/><path d="M89.82 65.86a22.791 22.791 0 0 1-11.31 29.128 22.927 22.927 0 0 1-16.8 1.169 22.92 22.92 0 0 1-13.068-10.619 22.878 22.878 0 0 0 5.155 7.716 22.932 22.932 0 0 0 16.96 6.576 22.906 22.906 0 0 0 9.013-2.221 22.838 22.838 0 0 0 7.382-5.614A22.784 22.784 0 0 0 89.82 65.86z" fill="#966891" opacity=".48"/><path d="M83.663 59.103L51.18 90.35c.678 1.004.313.778 1.147 1.656a7.23 7.23 0 0 0 1.62 1.225L86.43 61.983c-.677-1.003-.312-.777-1.147-1.655-.835-.879-.672-.485-1.62-1.225z" fill="#966891" opacity=".6"/><path d="M17.744 44.493c12.144 2.633 24.118-5.051 26.745-17.164C47.116 15.216 39.4 3.262 27.256.628 15.112-2.006 3.138 5.679.511 17.792c-2.627 12.113 5.089 24.067 17.233 26.7z" fill="#C0D5D0"/><path d="M41.35 10.227a22.393 22.393 0 0 1-9.209 29.279 22.526 22.526 0 0 1-16.388 2.235 22.52 22.52 0 0 1-13.5-9.556 22.476 22.476 0 0 0 5.552 7.236 22.535 22.535 0 0 0 25.755 2.595 22.44 22.44 0 0 0 6.875-5.984 22.387 22.387 0 0 0 .916-25.804z" fill="#9FB7B2" opacity=".44"/><path opacity=".6" d="M32.335 2.023L5.631 37.356c.82.845.422.695 1.393 1.43.54.395 1.134.71 1.763.938L35.484 4.389c-.812-.843-.422-.695-1.394-1.43a7.064 7.064 0 0 0-1.755-.936z" fill="#6A9A9B"/><path d="M212.135 177.436c17.131 3.562 33.899-7.403 37.451-24.491 3.553-17.087-7.455-33.827-24.587-37.388-17.132-3.562-33.899 7.403-37.452 24.491-3.552 17.087 7.456 33.827 24.588 37.388z" fill="#F8EEC8"/><path opacity=".33" d="M244.971 128.909a31.543 31.543 0 0 1-12.639 41.321 31.73 31.73 0 0 1-23.043 3.345 31.722 31.722 0 0 1-19.125-13.277 31.668 31.668 0 0 0 7.901 10.139 31.748 31.748 0 0 0 36.325 3.366 31.598 31.598 0 0 0 9.619-8.516 31.526 31.526 0 0 0 5.766-24.465 31.596 31.596 0 0 0-4.804-11.913z" fill="#F3C74A"/><path d="M197.146 123.605l38.481 49.188c1.445-.8 1.109-.316 2.453-1.365 1.345-1.049.798-.836 1.946-2.039L201.545 120.2c-1.445.8-1.109.316-2.453 1.365-1.345 1.049-.82.832-1.946 2.04z" fill="#F8EEC8"/></g><defs><clipPath id="clip0"><path fill="#fff" d="M0 0h257v184H0z"/></clipPath></defs></svg>
